src/images/problem-5.svg

<svg width="470" height="360" fill="none" xmlns="http://www.w3.org/2000/svg"><mask id="a" maskUnits="userSpaceOnUse" x="0" y="0" width="470" height="360"><path fill="#fff" d="M0 0h470v360H0z"/></mask><g mask="url(#a)"><path d="M90.867 287.43V72.57M338.533 319.881h-215.17M371.031 247.196v40.234M371.031 72.57v40.674M123.365 40.12h215.17" stroke="#B2B2B2" stroke-width="2" stroke-linecap="round" stroke-linejoin="round"/><path d="M365.429 235.952v73.858a4.479 4.479 0 01-4.483 4.476H100.953a4.48 4.48 0 01-4.482-4.476V50.191a4.48 4.48 0 014.482-4.476h259.993a4.479 4.479 0 014.483 4.476v73.857" stroke="#1A1A1A" stroke-width="2" stroke-linecap="round" stroke-linejoin="round"/><path clip-rule="evenodd" d="M410.254 180c0 24.721-20.068 44.762-44.826 44.762-24.757 0-44.826-20.041-44.826-44.762 0-24.722 20.069-44.762 44.826-44.762 24.758 0 44.826 20.04 44.826 44.762z" stroke="#1A1A1A" stroke-width="2" stroke-linecap="round" stroke-linejoin="round"/><path d="M365.429 165.54v19.704" stroke="#000" stroke-width="2" stroke-linecap="round" stroke-linejoin="round"/><path fill-rule="evenodd" clip-rule="evenodd" d="M367.31 192.581a1.881 1.881 0 01-3.763 0 1.88 1.88 0 013.763 0z" fill="#000"/><path d="M166.512 94.673h113.192M166.512 80.684h135.603" stroke="#B2B2B2" stroke-width="2" stroke-linecap="round" stroke-linejoin="round"/><path clip-rule="evenodd" d="M152.503 87.679c0 7.725-6.271 13.988-14.008 13.988-7.736 0-14.009-6.263-14.009-13.988s6.273-13.988 14.009-13.988c7.737 0 14.008 6.263 14.008 13.988z" stroke="#B2B2B2" stroke-width="2" stroke-linecap="round" stroke-linejoin="round"/><path d="M166.512 150.625h135.603M166.512 136.637h113.192" stroke="#B2B2B2" stroke-width="2" stroke-linecap="round" stroke-linejoin="round"/><path clip-rule="evenodd" d="M152.503 143.631c0 7.725-6.271 13.988-14.008 13.988-7.736 0-14.009-6.263-14.009-13.988s6.273-13.988 14.009-13.988c7.737 0 14.008 6.263 14.008 13.988z" stroke="#B2B2B2" stroke-width="2" stroke-linecap="round" stroke-linejoin="round"/><path d="M166.512 206.578h135.603M166.512 192.589h113.192" stroke="#B2B2B2" stroke-width="2" stroke-linecap="round" stroke-linejoin="round"/><path clip-rule="evenodd" d="M152.503 199.584c0 7.725-6.271 13.988-14.008 13.988-7.736 0-14.009-6.263-14.009-13.988s6.273-13.988 14.009-13.988c7.737 0 14.008 6.263 14.008 13.988z" stroke="#B2B2B2" stroke-width="2" stroke-linecap="round" stroke-linejoin="round"/><path d="M138.496 267.562v19.868M149.701 256.373v31.057M160.908 245.183v42.247M172.113 250.778v36.652M183.32 261.967v25.463M194.525 250.778v36.652M205.73 261.967v25.463M216.937 273.158v14.272M293.152 250.778h30.461M258.961 250.778h20.742M314.441 266.307h9.171M258.961 266.307h42.033M283.938 281.836h39.674M258.961 281.836h11.527" stroke="#B2B2B2" stroke-width="2" stroke-linecap="round" stroke-linejoin="round"/><path clip-rule="evenodd" d="M280.574 285.193h-6.724a3.36 3.36 0 01-3.362-3.357 3.36 3.36 0 013.362-3.357h6.724a3.359 3.359 0 013.362 3.357 3.36 3.36 0 01-3.362 3.357zM311.08 269.664h-6.724a3.36 3.36 0 01-3.362-3.357 3.36 3.36 0 013.362-3.357h6.724a3.36 3.36 0 013.362 3.357 3.36 3.36 0 01-3.362 3.357zM289.789 254.135h-6.724a3.36 3.36 0 01-3.362-3.357 3.36 3.36 0 013.362-3.357h6.724a3.36 3.36 0 013.362 3.357 3.36 3.36 0 01-3.362 3.357z" stroke="#B2B2B2" stroke-width="2" stroke-linecap="round" stroke-linejoin="round"/></g></svg>

<svg width="470" height="360" viewBox="0 0 470 360" fill="none" xmlns="http://www.w3.org/2000/svg">
<mask id="mask0" mask-type="alpha" maskUnits="userSpaceOnUse" x="0" y="0" width="470" height="360">
<rect width="470" height="360" fill="white"/>
</mask>
<g mask="url(#mask0)">
<path d="M90.867 287.43V72.5693" stroke="#B2B2B2" stroke-width="2" stroke-linecap="round" stroke-linejoin="round"/>
<path d="M338.533 319.881H123.363" stroke="#B2B2B2" stroke-width="2" stroke-linecap="round" stroke-linejoin="round"/>
<path d="M371.031 247.196V287.43" stroke="#B2B2B2" stroke-width="2" stroke-linecap="round" stroke-linejoin="round"/>
<path d="M371.031 72.5693V113.244" stroke="#B2B2B2" stroke-width="2" stroke-linecap="round" stroke-linejoin="round"/>
<path d="M123.365 40.1191H338.535" stroke="#B2B2B2" stroke-width="2" stroke-linecap="round" stroke-linejoin="round"/>
<path d="M365.429 235.952V309.81C365.429 312.282 363.423 314.286 360.946 314.286H100.953C98.4778 314.286 96.4707 312.282 96.4707 309.81V50.191C96.4707 47.7191 98.4778 45.7148 100.953 45.7148H360.946C363.423 45.7148 365.429 47.7191 365.429 50.191V124.048" stroke="#1A1A1A" stroke-width="2" stroke-linecap="round" stroke-linejoin="round"/>
<path fill-rule="evenodd" clip-rule="evenodd" d="M410.254 180C410.254 204.721 390.186 224.762 365.428 224.762C340.671 224.762 320.602 204.721 320.602 180C320.602 155.278 340.671 135.238 365.428 135.238C390.186 135.238 410.254 155.278 410.254 180Z" stroke="#1A1A1A" stroke-width="2" stroke-linecap="round" stroke-linejoin="round"/>
<path d="M365.429 165.54V185.244" stroke="black" stroke-width="2" stroke-linecap="round" stroke-linejoin="round"/>
<path fill-rule="evenodd" clip-rule="evenodd" d="M367.31 192.581C367.31 193.62 366.467 194.461 365.427 194.461C364.39 194.461 363.547 193.62 363.547 192.581C363.547 191.544 364.39 190.702 365.427 190.702C366.467 190.702 367.31 191.544 367.31 192.581Z" fill="black"/>
<path d="M166.512 94.6728H279.704" stroke="#B2B2B2" stroke-width="2" stroke-linecap="round" stroke-linejoin="round"/>
<path d="M166.512 80.6845H302.115" stroke="#B2B2B2" stroke-width="2" stroke-linecap="round" stroke-linejoin="round"/>
<path fill-rule="evenodd" clip-rule="evenodd" d="M152.503 87.679C152.503 95.4038 146.232 101.667 138.495 101.667C130.759 101.667 124.486 95.4038 124.486 87.679C124.486 79.9542 130.759 73.6909 138.495 73.6909C146.232 73.6909 152.503 79.9542 152.503 87.679Z" stroke="#B2B2B2" stroke-width="2" stroke-linecap="round" stroke-linejoin="round"/>
<path d="M166.512 150.625H302.115" stroke="#B2B2B2" stroke-width="2" stroke-linecap="round" stroke-linejoin="round"/>
<path d="M166.512 136.637H279.704" stroke="#B2B2B2" stroke-width="2" stroke-linecap="round" stroke-linejoin="round"/>
<path fill-rule="evenodd" clip-rule="evenodd" d="M152.503 143.631C152.503 151.356 146.232 157.619 138.495 157.619C130.759 157.619 124.486 151.356 124.486 143.631C124.486 135.906 130.759 129.643 138.495 129.643C146.232 129.643 152.503 135.906 152.503 143.631Z" stroke="#B2B2B2" stroke-width="2" stroke-linecap="round" stroke-linejoin="round"/>
<path d="M166.512 206.578H302.115" stroke="#B2B2B2" stroke-width="2" stroke-linecap="round" stroke-linejoin="round"/>
<path d="M166.512 192.589H279.704" stroke="#B2B2B2" stroke-width="2" stroke-linecap="round" stroke-linejoin="round"/>
<path fill-rule="evenodd" clip-rule="evenodd" d="M152.503 199.584C152.503 207.309 146.232 213.572 138.495 213.572C130.759 213.572 124.486 207.309 124.486 199.584C124.486 191.859 130.759 185.596 138.495 185.596C146.232 185.596 152.503 191.859 152.503 199.584Z" stroke="#B2B2B2" stroke-width="2" stroke-linecap="round" stroke-linejoin="round"/>
<path d="M138.496 267.562V287.43" stroke="#B2B2B2" stroke-width="2" stroke-linecap="round" stroke-linejoin="round"/>
<path d="M149.701 256.373V287.43" stroke="#B2B2B2" stroke-width="2" stroke-linecap="round" stroke-linejoin="round"/>
<path d="M160.908 245.183V287.43" stroke="#B2B2B2" stroke-width="2" stroke-linecap="round" stroke-linejoin="round"/>
<path d="M172.113 250.778V287.43" stroke="#B2B2B2" stroke-width="2" stroke-linecap="round" stroke-linejoin="round"/>
<path d="M183.32 261.967V287.43" stroke="#B2B2B2" stroke-width="2" stroke-linecap="round" stroke-linejoin="round"/>
<path d="M194.525 250.778V287.43" stroke="#B2B2B2" stroke-width="2" stroke-linecap="round" stroke-linejoin="round"/>
<path d="M205.73 261.967V287.43" stroke="#B2B2B2" stroke-width="2" stroke-linecap="round" stroke-linejoin="round"/>
<path d="M216.937 273.158V287.43" stroke="#B2B2B2" stroke-width="2" stroke-linecap="round" stroke-linejoin="round"/>
<path d="M293.152 250.778H323.613" stroke="#B2B2B2" stroke-width="2" stroke-linecap="round" stroke-linejoin="round"/>
<path d="M258.961 250.778H279.703" stroke="#B2B2B2" stroke-width="2" stroke-linecap="round" stroke-linejoin="round"/>
<path d="M314.441 266.307H323.612" stroke="#B2B2B2" stroke-width="2" stroke-linecap="round" stroke-linejoin="round"/>
<path d="M258.961 266.307H300.994" stroke="#B2B2B2" stroke-width="2" stroke-linecap="round" stroke-linejoin="round"/>
<path d="M283.938 281.836H323.612" stroke="#B2B2B2" stroke-width="2" stroke-linecap="round" stroke-linejoin="round"/>
<path d="M258.961 281.836H270.488" stroke="#B2B2B2" stroke-width="2" stroke-linecap="round" stroke-linejoin="round"/>
<path fill-rule="evenodd" clip-rule="evenodd" d="M280.574 285.193H273.85C271.994 285.193 270.488 283.689 270.488 281.836C270.488 279.981 271.994 278.479 273.85 278.479H280.574C282.431 278.479 283.936 279.981 283.936 281.836C283.936 283.689 282.431 285.193 280.574 285.193Z" stroke="#B2B2B2" stroke-width="2" stroke-linecap="round" stroke-linejoin="round"/>
<path fill-rule="evenodd" clip-rule="evenodd" d="M311.08 269.664H304.356C302.5 269.664 300.994 268.161 300.994 266.307C300.994 264.453 302.5 262.95 304.356 262.95H311.08C312.937 262.95 314.442 264.453 314.442 266.307C314.442 268.161 312.937 269.664 311.08 269.664Z" stroke="#B2B2B2" stroke-width="2" stroke-linecap="round" stroke-linejoin="round"/>
<path fill-rule="evenodd" clip-rule="evenodd" d="M289.789 254.135H283.065C281.208 254.135 279.703 252.632 279.703 250.778C279.703 248.924 281.208 247.421 283.065 247.421H289.789C291.645 247.421 293.151 248.924 293.151 250.778C293.151 252.632 291.645 254.135 289.789 254.135Z" stroke="#B2B2B2" stroke-width="2" stroke-linecap="round" stroke-linejoin="round"/>
</g>
</svg>
